X:1
T:The Lords My Shepherd
T:The Lords My Shepherd
T:Brother James Air
T:J L Macbeth Bain
T:Psalter
C:J L Macbeth Bain
Z:Psalter
%%score { ( 1 2 ) | ( 3 4 ) }
L:1/8
M:3/2
K:D
V:1 treble nm="Piano" snm="Pno."
V:2 treble 
V:3 bass 
V:4 bass 
V:1
 D4 | F2 A2 d4 A4 | B2 d2 A4 G4 | F2 D2 D4 C4 | D8 D4 | F2 A2 d4 A4 | B2 d2 A4 G4 | F2 D2 D4 C4 | %8
w: 1.The|Lord's my Shep- herd;|I'll not want. He|Makes me down to|lie in|past- tures green; He|lead- eth me the|Qui- et wa- ters|
w: 2.My|soul he doth re-|store a- gain, and|me to walk doth|make with-|in the paths of|righ- teous- ness, E'en|for his own name's|
w: 3.Yeah|though I walk in|death's dark vale, Yet|will I ferr no|ill; For|thou art with me,|and thy rod and|staff me com- fort|
w: 4.My|Ta- ble thou hast|fur- nish- ed in|pres- ence of my|foes; My|head thou dost with|oil a- noint, and|my cup o- ver-|
w: 5.Good-|ness and Mer- cy|all my life shall|sure- ly foll- ow|me, and|in God's house for-|ever- * more my|dwell- ing place shall|
 D8 E4 | F2 D2 D4 E4 | F2 D2 D4 E4 | F2 A2 d4 d4 | d8 |] %13
w: by. he|lead- eth me, he|lead- eth me, the|qui- et wat- ers|by|
w: sake; With-|in the paths of|righ- teous- ness, E'en|for his own names|sake|
w: still; For|thou art with me,|and thy rod and|staff me com- fort|still|
w: flows. My|head thou dost with|oil a- noint, and|my up o- ver-|flows|
w: be. And|in god's house for-|ever- * more, my|dwell- ing place shall|be|
V:2
 D4 | D2 C2 D4 F4 | A2 G2 F4 D2 E2 | D2 D2 G,4 A,4 | A,8 D4 | D2 D2 F4 F4 | D2 F2 E4 G4 | %7
 D2 D2 A,4 A,4 | A,8 C4 | D2 D2 D4 B,2 C2 | D2 D2 B,4 C4 | D2 D2 F2 G2 A2 G2 | F8 |] %13
V:3
 F,4 | A,2 G,2 A,4 D2 C2 | B,2 G,2 A,4 B,4 | A,2 F,2 E,4 E,4 | F,8 F,4 | A,2 F,2 B,4 C4 | %6
 B,2 B,2 C4 D4 | D2 B,2 A,4 G,4 | F,8 A,4 | A,2 F,2 A,4 G,4 | F,2 F,2 F,4 A,4 | A,2 F,2 B,4 B,4 | %12
 A,8 |] %13
V:4
 D,4 | D,2 E,2 F,4 D,4 | G,,2 B,,2 D,4 B,,2 C,2 | D,2 D,2 E,4 A,,4 | D,8 D,4 | D,2 C,2 B,,4 F,4 | %6
 G,2 G,2 A,4 B,4 | A,2 G,2 F,4 E,4 | D,8 A,,4 | D,2 D,2 F,4 E,4 | B,,2 B,,2 B,,4 A,,4 | %11
 D,2 D,2 B,,4 G,,4 | D,8 |] %13

